X: 03
T: BARRAS BRIDGE
C: Andrew Rankine (1930-1985)
R: reel
B: "The Complete Andrew Rankine Collection of Scottish Country Dance Tunes" p.6
Z: 2017 John Chambers <jc:trillian.mit.edu>
M: C
L: 1/8
K: A
e |:\
"A"cAAB cAA2 | "E7"dBBc dBBd | "A"EAAB "F#m"cAAc | "B7"B^ddf "E7"e2e=d |
"A"cAAB cAA2 | "E7"dBBc dBBd | "A"cAAB "F#m"cAAc | "E7"BEGB "A"A4 :|
|:\
"A"EAAE FEEA | EccA "E7"AGG2 | EGGE FEFF | EddB "A"BAA2 |
"A"EAAE FEEA | EccA "E7"AGG2 | EGGE FEEd | GEBG "A"A2z2 :|

%%sep 1 1 500

